flaticon/grooming/hair-brush-3.svg

<svg xmlns="http://www.w3.org/2000/svg" width="32" height="32" viewBox="0 0 24 24">
    <path d="M 17.601562 0 C 17.359375 0 17.199219 0.160156 17.199219 0.398438 L 17.199219 6 L 16.398438 6 L 16.398438 0.398438 C 16.398438 0.160156 16.238281 0 16 0 C 15.761719 0 15.601562 0.160156 15.601562 0.398438 L 15.601562 6 L 14.800781 6 L 14.800781 0.398438 C 14.800781 0.160156 14.640625 0 14.398438 0 C 14.160156 0 14 0.160156 14 0.398438 L 14 6 L 13.199219 6 L 13.199219 0.398438 C 13.199219 0.160156 13.039062 0 12.800781 0 C 12.558594 0 12.398438 0.160156 12.398438 0.398438 L 12.398438 6 L 11.601562 6 L 11.601562 0.398438 C 11.601562 0.160156 11.441406 0 11.199219 0 C 10.960938 0 10.800781 0.160156 10.800781 0.398438 L 10.800781 6 L 10 6 L 10 0.398438 C 10 0.160156 9.839844 0 9.601562 0 C 9.359375 0 9.199219 0.160156 9.199219 0.398438 L 9.199219 6 L 8.398438 6 L 8.398438 0.398438 C 8.398438 0.160156 8.238281 0 8 0 C 7.761719 0 7.601562 0.160156 7.601562 0.398438 L 7.601562 6 L 6.800781 6 L 6.800781 0.398438 C 6.800781 0.160156 6.640625 0 6.398438 0 C 6.160156 0 6 0.160156 6 0.398438 L 6 6.398438 C 6 9 7.640625 11.28125 10.121094 12.121094 C 10.519531 12.238281 10.800781 12.640625 10.800781 13.039062 L 10.800781 16.398438 L 10 21.960938 L 10 22 C 10 23.121094 10.878906 24 12 24 C 13.121094 24 14 23.121094 14 22 L 13.199219 16.359375 L 13.199219 13 C 13.199219 12.601562 13.480469 12.199219 13.878906 12.078125 C 16.359375 11.28125 18 9 18 6.398438 L 18 0.398438 C 18 0.160156 17.839844 0 17.601562 0 Z M 13.640625 11.320312 C 12.878906 11.558594 12.398438 12.238281 12.398438 13 L 12.398438 16.398438 L 13.199219 22.039062 C 13.199219 22.679688 12.640625 23.199219 12 23.199219 C 11.359375 23.199219 10.800781 22.679688 10.800781 22.039062 L 11.601562 16.441406 L 11.601562 13 C 11.601562 12.238281 11.121094 11.558594 10.359375 11.320312 C 8.359375 10.679688 6.960938 8.878906 6.800781 6.800781 L 17.199219 6.800781 C 17.039062 8.878906 15.640625 10.640625 13.640625 11.320312 Z M 13.640625 11.320312"/>
</svg>

<svg xmlns="http://www.w3.org/2000/svg" width="32" height="32" viewBox="0 0 24 24">
    <path d="M17.602 0c-.243 0-.403.16-.403.398V6h-.8V.398C16.398.16 16.238 0 16 0c-.238 0-.398.16-.398.398V6H14.8V.398C14.8.16 14.64 0 14.398 0 14.16 0 14 .16 14 .398V6h-.8V.398C13.2.16 13.04 0 12.8 0c-.241 0-.402.16-.402.398V6h-.796V.398c0-.238-.16-.398-.403-.398-.238 0-.398.16-.398.398V6H10V.398C10 .16 9.84 0 9.602 0c-.243 0-.403.16-.403.398V6h-.8V.398C8.398.16 8.238 0 8 0c-.238 0-.398.16-.398.398V6H6.8V.398C6.8.16 6.64 0 6.398 0 6.16 0 6 .16 6 .398v6a6.02 6.02 0 0 0 4.121 5.723c.399.117.68.52.68.918v3.36L10 21.96V22c0 1.121.879 2 2 2s2-.879 2-2l-.8-5.64V13c0-.398.28-.8.679-.922C16.359 11.281 18 9 18 6.398v-6C18 .16 17.84 0 17.602 0zM13.64 11.32A1.748 1.748 0 0 0 12.398 13v3.398l.801 5.641c0 .64-.558 1.16-1.199 1.16-.64 0-1.2-.52-1.2-1.16l.802-5.598V13c0-.762-.48-1.441-1.243-1.68A5.162 5.162 0 0 1 6.801 6.8h10.398c-.16 2.079-1.558 3.84-3.558 4.52zm0 0"/>
</svg>
